X: 10140
T: Din Tarrant's
R: polka
M: 2/4
K: Bminor
|:a>f df|ed e2|e/f/e/d/ cA|Bc df|
a/b/a/f/ df|ed e2|e/f/e/d/ cA|1 Bc df:|2 Bc d/f/d/c/||
|:dB gB|dB f>B|dA eA|B/c/d e>g|
fb ba|fb ba|fa fe/d/|1 cA B>c:|2 d/c/A B2||

